img/logo-kinghost.svg

<svg width="187" height="25" viewBox="0 0 187 25" fill="none" xmlns="http://www.w3.org/2000/svg">
<path d="M76.8335 24.2341C75.8715 24.2341 75.0728 24.2704 74.2742 24.1978C74.1109 24.1797 73.8567 23.8167 73.8386 23.5988C73.7841 22.8728 73.8204 22.1468 73.8204 21.4208C73.8204 15.2495 73.8204 9.07827 73.8204 2.90703C73.8204 2.52586 73.8567 2.14469 73.8749 1.67278C74.8187 1.67278 75.69 1.61832 76.5612 1.70908C76.8335 1.72723 77.1239 2.10839 77.2872 2.38066C80.5725 7.55361 83.8396 12.7447 87.1249 17.9358C87.3064 18.2081 87.4879 18.4803 87.8147 18.9704C87.8147 13.1077 87.8147 7.49916 87.8147 1.63647C88.9218 2.27175 89.8657 2.77997 90.7551 3.32449C90.8821 3.3971 90.9184 3.68751 90.9184 3.86901C90.9184 10.5303 90.9184 17.1735 90.9184 23.8348C90.9184 23.9256 90.8821 23.9982 90.8277 24.216C89.9201 24.216 88.9944 24.2704 88.0688 24.1797C87.8328 24.1615 87.5605 23.7985 87.3972 23.5262C84.0938 18.317 80.8085 13.1077 77.5232 7.89847C77.3598 7.64436 77.1965 7.40841 76.8335 7.1906C76.8335 12.8355 76.8335 18.4803 76.8335 24.2341Z" fill="#737380"/>
<path d="M110.375 8.49742C109.377 8.49742 108.487 8.49742 107.634 8.49742C107.416 7.71693 107.308 6.93645 106.963 6.24673C105.347 3.0159 100.428 2.76179 98.0688 5.73851C97.1794 6.86385 96.6349 8.17071 96.5986 9.56831C96.5442 12.0368 96.3627 14.5598 96.7438 16.9738C97.6695 22.6731 103.296 23.1995 106.636 21.1848C107.253 20.8218 107.58 20.3498 107.544 19.5512C107.471 18.1718 107.525 16.7741 107.525 15.3039C105.783 15.3039 104.131 15.3039 102.425 15.3039C102.425 14.4872 102.425 13.7793 102.425 12.9262C105.002 13.1077 107.761 12.2546 110.085 14.1967C110.284 14.3601 110.466 14.6687 110.484 14.9046C110.52 16.8649 110.52 18.8433 110.484 20.8036C110.484 21.1485 110.266 21.5659 110.012 21.8201C108.56 23.3629 106.745 24.1978 104.676 24.4338C102.171 24.7242 99.7205 24.6516 97.5243 23.1632C95.201 21.6022 93.7671 19.4242 93.6582 16.6289C93.5493 13.7793 93.4222 10.857 93.876 8.0618C94.6383 3.46967 98.9219 0.74706 103.568 1.38234C105.819 1.6909 107.779 2.43508 109.177 4.3046C110.103 5.53885 110.484 6.882 110.375 8.49742Z" fill="#737380"/>
<path d="M65.6155 24.2341C64.3087 24.2341 63.2378 24.2704 62.1669 24.2159C61.8946 24.1978 61.6042 23.9074 61.4046 23.6714C59.045 20.8399 56.6491 18.0447 54.3621 15.1406C53.5453 14.106 52.6922 13.7974 51.3854 14.106C51.3854 17.4094 51.3854 20.7492 51.3854 24.2523C50.4597 24.2523 49.6248 24.2704 48.7898 24.2341C48.6446 24.2341 48.4631 23.9981 48.4087 23.8348C48.3361 23.6533 48.3724 23.4173 48.3724 23.1995C48.3724 16.3748 48.3724 9.53202 48.3724 2.70734C48.3724 2.41693 48.3905 2.10837 48.4087 1.76351C49.3888 1.76351 50.2963 1.76351 51.2946 1.76351C51.2946 5.04879 51.2946 8.29777 51.2946 11.583C52.3111 11.819 53.0734 11.7646 53.7994 10.8752C56.159 7.9529 58.5912 5.10324 61.0234 2.25358C61.2775 1.96317 61.7494 1.74536 62.1306 1.72721C62.9837 1.6546 63.8549 1.70906 64.944 1.70906C61.8039 5.3755 58.7909 8.89674 55.7415 12.4543C59.0268 16.3385 62.2214 20.1683 65.6155 24.2341Z" fill="#737380"/>
<path d="M133.645 12.5633C133.772 11.2383 133.772 9.49579 134.153 7.84408C135.133 3.61496 138.454 1.18276 142.847 1.34611C146.985 1.49132 150.379 4.35914 150.942 8.5338C151.414 11.8735 151.614 15.2859 150.652 18.5893C149.436 22.7821 146.078 24.8513 141.286 24.5427C137.692 24.3068 134.588 21.3664 133.971 17.4821C133.753 15.9756 133.772 14.4691 133.645 12.5633ZM135.441 12.6722C135.55 14.4146 135.55 15.8485 135.768 17.2462C136.295 20.604 138.727 22.8184 141.903 22.9999C145.443 23.1996 148.129 21.4208 148.982 17.954C149.762 14.7413 149.726 11.4016 149.018 8.17079C148.274 4.79475 145.751 2.92523 142.448 2.92523C139.072 2.92523 136.73 4.704 135.913 8.15264C135.55 9.73175 135.569 11.3835 135.441 12.6722Z" fill="#737380"/>
<path d="M114.242 1.70911C114.841 1.70911 115.349 1.70911 115.967 1.70911C115.967 5.2122 115.967 8.66083 115.967 12.2184C120.305 12.2184 124.552 12.2184 128.89 12.2184C128.89 8.73343 128.89 5.26665 128.89 1.74541C129.525 1.74541 130.088 1.74541 130.759 1.74541C130.759 2.16288 130.759 2.54404 130.759 2.92521C130.759 9.51392 130.759 16.1208 130.759 22.7095C130.759 24.4157 130.759 24.4157 128.944 24.1616C128.944 20.7674 128.944 17.3732 128.944 13.8882C124.606 13.8882 120.377 13.8882 116.003 13.8882C116.003 17.3187 116.003 20.7311 116.003 24.1797C115.368 24.1797 114.841 24.1797 114.242 24.1797C114.242 16.6835 114.242 9.24166 114.242 1.70911Z" fill="#737380"/>
<path d="M168.457 7.98921C167.876 7.98921 167.405 7.98921 166.878 7.98921C166.806 7.64435 166.806 7.29949 166.66 7.00908C166.243 6.15599 165.898 5.194 165.281 4.54058C163.157 2.28989 158.692 2.28989 156.514 4.41352C154.645 6.24675 154.844 9.06011 157.113 10.367C158.511 11.1656 160.108 11.5831 161.614 12.2183C163.212 12.8899 164.918 13.4344 166.37 14.3783C169.728 16.5382 169.619 21.0033 166.279 23.1995C163.048 25.3232 157.531 24.9601 154.626 22.4009C153.283 21.2211 152.811 19.6964 152.848 17.8995C153.41 17.8995 153.919 17.8995 154.427 17.8995C154.463 17.9903 154.536 18.0629 154.554 18.1355C155.262 21.33 157.113 22.8728 160.507 23.0543C162.105 23.1451 163.647 22.9091 165.027 22.0379C167.568 20.4588 167.695 17.2098 165.172 15.6125C163.883 14.8139 162.377 14.3601 160.961 13.7611C159.346 13.0896 157.639 12.5995 156.133 11.7464C152.811 9.82244 152.521 5.64777 155.425 3.10667C158.438 0.474816 164.246 0.747075 166.969 3.66934C168.058 4.88544 168.548 6.3012 168.457 7.98921Z" fill="#737380"/>
<path d="M70.1708 24.2885C69.118 24.2885 68.1016 24.2885 67.0488 24.2885C67.0488 16.7015 67.0488 9.15084 67.0488 1.56384C68.1016 1.56384 69.118 1.56384 70.1708 1.56384C70.1708 9.15084 70.1708 16.6834 70.1708 24.2885Z" fill="#737380"/>
<path d="M179.149 24.1797C178.495 24.1797 177.969 24.1797 177.37 24.1797C177.37 17.1917 177.37 10.2763 177.37 3.21565C174.684 3.21565 172.088 3.21565 169.42 3.21565C169.42 2.63483 169.42 2.19921 169.42 1.72729C175.21 1.72729 180.964 1.72729 186.718 1.72729C187.008 3.1249 186.954 3.17935 185.629 3.17935C183.813 3.17935 181.998 3.17935 180.183 3.17935C179.857 3.17935 179.53 3.21565 179.131 3.23381C179.149 10.24 179.149 17.1554 179.149 24.1797Z" fill="#737380"/>
<path d="M8.46621 12.8418C8.36373 11.7658 8.26125 10.677 8.17159 9.60099C8.14597 9.3448 8.03069 8.97333 8.38935 8.89647C8.78644 8.794 8.8633 9.17828 8.95296 9.46008C9.2732 10.5233 9.56782 11.5864 10.0802 12.5856C10.2723 12.9571 10.5157 13.2773 10.8103 13.5463C11.5789 14.2508 12.7317 14.1611 13.321 13.3029C14.0639 12.2269 14.2945 10.9588 14.6147 9.71627C15.1015 7.8461 15.2296 5.9375 15.4986 4.0289C15.5242 3.83676 15.5754 3.65743 15.6395 3.4781C15.7035 3.29876 15.8444 3.2091 16.0366 3.22191C16.2287 3.23472 16.3568 3.33719 16.408 3.51652C16.5361 3.99047 16.613 4.47723 16.6642 4.96399C16.9076 7.47463 17.2919 9.95965 18.1885 12.3294C18.496 13.1492 18.8931 13.9306 19.905 14.0074C20.9938 14.0843 21.5446 13.3413 21.9929 12.4959C22.4669 11.5864 22.7359 10.5873 23.0433 9.6138C23.0817 9.47289 23.1202 9.31918 23.1842 9.19109C23.2739 9.01176 23.3892 8.84523 23.6197 8.89647C23.8759 8.94771 23.8887 9.15266 23.8759 9.3448C23.8375 9.88279 23.8119 10.408 23.7478 10.9332C23.6453 11.7145 23.5429 12.4959 23.6069 13.2901C23.6582 13.969 23.6838 14.6991 24.4523 15.0066C25.0416 15.2371 25.7461 14.9041 26.2969 14.1483C27.1551 12.9955 27.7828 11.7145 28.4617 10.4592C28.6282 10.1646 28.7819 9.85718 28.9484 9.56256C29.0893 9.31918 29.2559 9.02457 29.5889 9.19109C29.8707 9.33199 29.7554 9.66504 29.6914 9.88279C29.5249 10.4592 29.3071 11.01 29.1021 11.5736C28.0262 14.5838 26.9374 17.5812 25.8614 20.5915C25.4899 21.6162 25.3106 21.6674 24.2858 21.2447C20.8657 19.8357 17.3047 19.4002 13.6284 19.7845C11.438 20.015 9.29882 20.4762 7.28774 21.4497C6.80098 21.6931 6.50637 21.4497 6.33985 21.0014C5.8659 19.7204 5.39195 18.4395 4.93081 17.1585C4.0982 14.8528 3.2784 12.5471 2.4586 10.2415C2.33051 9.88279 2.01027 9.38323 2.49703 9.17828C2.94536 8.98614 3.09907 9.54975 3.26559 9.86999C3.94449 11.1765 4.649 12.4703 5.43038 13.7128C5.50723 13.8409 5.5969 13.9562 5.68657 14.0843C6.23737 14.84 6.98032 15.2243 7.56955 15.0066C8.37654 14.6991 8.37654 13.9434 8.4534 13.2389C8.46621 13.1108 8.4534 12.9827 8.4534 12.8546C8.4534 12.8418 8.4534 12.8418 8.46621 12.8418Z" fill="#737380"/>
<path d="M24.9253 23.3326C24.9125 24.0371 24.4898 24.3317 23.8365 24.0883C19.2251 22.4103 14.5625 22.231 9.82304 23.4991C9.20819 23.6656 8.60615 23.8706 8.00411 24.114C7.53016 24.3061 7.22273 24.2164 7.03059 23.7425C6.82564 23.2814 6.88969 22.9483 7.40206 22.7049C9.61809 21.693 11.9494 21.1422 14.3704 20.9757C17.8417 20.7323 21.2106 21.2703 24.4129 22.6921C24.7204 22.8202 24.9381 22.9739 24.9253 23.3326Z" fill="#737380"/>
<path d="M17.1373 1.53092C17.1373 2.09453 16.5993 2.63253 16.0357 2.64534C15.4208 2.65815 14.8956 2.12015 14.9084 1.5053C14.9084 0.890452 15.3824 0.429313 16.01 0.416504C16.6505 0.416504 17.1373 0.890452 17.1373 1.53092Z" fill="#737380"/>
<path d="M8.044 6.47534C8.54357 6.47534 8.94067 6.85962 8.92786 7.35919C8.91505 7.83314 8.49234 8.26866 8.0312 8.25585C7.55725 8.25585 7.16016 7.84595 7.16016 7.34638C7.16016 6.834 7.51882 6.47534 8.044 6.47534Z" fill="#737380"/>
<path d="M23.9514 8.23033C23.4519 8.21752 23.0676 7.80762 23.0804 7.32086C23.0932 6.84691 23.4519 6.48825 23.9514 6.48825C24.4766 6.47544 24.8353 6.8341 24.8481 7.35929C24.8481 7.85885 24.4766 8.23033 23.9514 8.23033Z" fill="#737380"/>
<path d="M1.79194 6.75726C2.29151 6.74445 2.71421 7.14154 2.72702 7.61549C2.72702 8.06382 2.2915 8.52496 1.83037 8.53777C1.38204 8.55058 0.984947 8.15348 0.959329 7.69235C0.946519 7.16716 1.29237 6.77007 1.79194 6.75726Z" fill="#737380"/>
<path d="M31.0612 7.64103C31.0612 8.10216 30.6769 8.51206 30.2286 8.52487C29.7802 8.53768 29.2935 8.10216 29.2678 7.66664C29.255 7.21831 29.7034 6.76999 30.1645 6.76999C30.6897 6.75718 31.0612 7.11584 31.0612 7.64103Z" fill="#737380"/>
</svg>

<svg width="187" height="25" fill="none" xmlns="http://www.w3.org/2000/svg"><path d="M76.834 24.234c-.963 0-1.761.036-2.56-.036-.163-.018-.417-.381-.435-.6-.055-.725-.019-1.451-.019-2.177V2.907c0-.381.037-.762.055-1.234.944 0 1.815-.055 2.686.036.272.018.563.4.726.672 3.285 5.173 6.553 10.364 9.838 15.555l.69 1.034V1.636c1.107.636 2.05 1.144 2.94 1.688.127.073.163.364.163.545v19.966c0 .09-.036.163-.09.381-.908 0-1.834.054-2.76-.036-.235-.018-.507-.381-.67-.654-3.304-5.209-6.59-10.418-9.875-15.628-.163-.254-.326-.49-.69-.707v17.043ZM110.375 8.497h-2.741c-.218-.78-.326-1.56-.671-2.25-1.616-3.231-6.535-3.485-8.894-.508-.89 1.125-1.434 2.432-1.47 3.83-.055 2.468-.236 4.99.145 7.405.925 5.7 6.552 6.226 9.892 4.21.617-.362.944-.834.908-1.633-.073-1.38-.019-2.777-.019-4.247h-5.1v-2.378c2.577.182 5.336-.671 7.66 1.27.199.164.381.473.399.709.036 1.96.036 3.938 0 5.899 0 .345-.218.762-.472 1.016-1.452 1.543-3.267 2.378-5.336 2.614-2.505.29-4.956.218-7.152-1.27-2.323-1.562-3.757-3.74-3.866-6.535-.109-2.85-.236-5.772.218-8.567.762-4.592 5.046-7.315 9.692-6.68 2.251.309 4.211 1.053 5.609 2.923.926 1.234 1.307 2.577 1.198 4.192ZM65.615 24.234c-1.306 0-2.377.036-3.448-.018-.272-.018-.563-.309-.762-.545-2.36-2.831-4.756-5.626-7.043-8.53-.817-1.035-1.67-1.344-2.977-1.035v10.146c-.925 0-1.76.018-2.595-.018-.145 0-.327-.236-.381-.4-.073-.18-.037-.417-.037-.634V2.707c0-.29.019-.599.037-.943h2.886v9.819c1.016.236 1.778.182 2.504-.708 2.36-2.922 4.792-5.772 7.224-8.621.255-.29.726-.509 1.108-.527.853-.072 1.724-.018 2.813-.018-3.14 3.666-6.153 7.188-9.203 10.745 3.286 3.884 6.48 7.714 9.874 11.78ZM133.645 12.563c.127-1.325.127-3.067.508-4.719.98-4.229 4.301-6.661 8.694-6.498 4.138.145 7.532 3.013 8.095 7.188.472 3.34.672 6.752-.29 10.055-1.216 4.193-4.574 6.262-9.366 5.954-3.594-.236-6.698-3.177-7.315-7.06-.218-1.507-.199-3.014-.326-4.92Zm1.796.11c.109 1.742.109 3.175.327 4.573.527 3.358 2.959 5.572 6.135 5.754 3.54.2 6.226-1.58 7.079-5.046.78-3.213.744-6.552.036-9.783-.744-3.376-3.267-5.246-6.57-5.246-3.376 0-5.718 1.779-6.535 5.228-.363 1.579-.344 3.23-.472 4.52ZM114.242 1.71h1.725v10.508h12.923V1.745h1.869V22.71c0 1.707 0 1.707-1.815 1.453V13.888h-12.941V24.18h-1.761V1.71ZM168.457 7.99h-1.579c-.072-.346-.072-.69-.218-.98-.417-.854-.762-1.816-1.379-2.47-2.124-2.25-6.589-2.25-8.767-.126-1.869 1.833-1.67 4.646.599 5.953 1.398.799 2.995 1.216 4.501 1.851 1.598.672 3.304 1.216 4.756 2.16 3.358 2.16 3.249 6.625-.091 8.822-3.231 2.123-8.748 1.76-11.653-.8-1.343-1.179-1.815-2.704-1.778-4.5h1.579c.036.09.109.163.127.236.708 3.194 2.559 4.737 5.953 4.918 1.598.091 3.14-.145 4.52-1.016 2.541-1.58 2.668-4.828.145-6.425-1.289-.8-2.795-1.253-4.211-1.852-1.615-.671-3.322-1.161-4.828-2.015-3.322-1.924-3.612-6.098-.708-8.64 3.013-2.631 8.821-2.359 11.544.563 1.089 1.216 1.579 2.632 1.488 4.32ZM70.17 24.288H67.05V1.564h3.122v22.724ZM179.149 24.18h-1.779V3.216h-7.95V1.727h17.298c.29 1.398.236 1.452-1.089 1.452h-5.446c-.326 0-.653.037-1.052.055.018 7.006.018 13.921.018 20.946ZM8.466 12.842A276.46 276.46 0 0 1 8.172 9.6c-.026-.256-.141-.628.217-.705.397-.102.474.282.564.564.32 1.063.615 2.126 1.127 3.126.192.371.436.691.73.96.769.705 1.922.615 2.511-.243.743-1.076.973-2.344 1.294-3.587.486-1.87.615-3.778.884-5.687a2.67 2.67 0 0 1 .14-.55c.065-.18.205-.27.398-.257.192.013.32.115.371.295.128.473.205.96.256 1.447.244 2.51.628 4.996 1.524 7.365.308.82.705 1.602 1.717 1.678 1.089.077 1.64-.666 2.088-1.511.474-.91.743-1.909 1.05-2.882.039-.141.077-.295.141-.423.09-.18.205-.346.436-.295.256.052.269.257.256.449-.039.538-.064 1.063-.128 1.588-.103.781-.205 1.563-.141 2.357.051.679.077 1.41.845 1.717.59.23 1.294-.103 1.845-.859.858-1.152 1.486-2.434 2.165-3.689.166-.294.32-.602.486-.896.141-.244.308-.538.64-.372.283.141.167.474.103.692-.166.576-.384 1.127-.589 1.69-1.076 3.01-2.165 6.008-3.24 9.018-.372 1.025-.551 1.076-1.576.654-3.42-1.41-6.981-1.845-10.658-1.46-2.19.23-4.33.691-6.34 1.665-.487.243-.782 0-.948-.449-.474-1.28-.948-2.562-1.41-3.843-.832-2.305-1.652-4.61-2.471-6.917-.128-.358-.449-.858.038-1.063.448-.192.602.372.769.692.678 1.307 1.383 2.6 2.164 3.843.077.128.167.243.257.371.55.756 1.293 1.14 1.883.923.807-.308.807-1.064.883-1.768.013-.128 0-.256 0-.384 0-.013 0-.013.013-.013Z" fill="#737380"/><path d="M24.925 23.333c-.012.704-.435.999-1.088.755-4.612-1.678-9.274-1.857-14.014-.589-.615.167-1.217.372-1.819.615-.474.192-.781.102-.973-.372-.205-.46-.141-.794.371-1.037 2.216-1.012 4.547-1.563 6.968-1.73 3.472-.243 6.84.295 10.043 1.717.307.128.525.282.512.64ZM17.137 1.53c0 .565-.538 1.103-1.101 1.115-.615.013-1.14-.525-1.128-1.14 0-.615.474-1.076 1.102-1.088.64 0 1.127.473 1.127 1.114ZM8.044 6.475c.5 0 .897.385.884.884-.013.474-.436.91-.897.897-.474 0-.87-.41-.87-.91 0-.512.358-.87.883-.87ZM23.951 8.23a.888.888 0 0 1-.87-.91c.012-.473.37-.832.87-.832.526-.013.884.346.897.871 0 .5-.371.871-.897.871ZM1.792 6.757c.5-.013.922.385.935.858 0 .449-.435.91-.897.923-.448.013-.845-.385-.87-.846-.013-.525.332-.922.832-.935ZM31.061 7.641c0 .461-.384.871-.832.884-.449.013-.935-.423-.961-.858-.013-.449.435-.897.896-.897.526-.013.897.346.897.871Z" fill="#737380"/></svg>
